X:1
T:title
M:4/4
Q:120
L:1/8
R:Reel
K:C
 ^b'2 _d ^g'3 _F ^b' |  ^f'b3d2 _e2 |  _b4 ^E3 ^d' | e4c2f _c' |  _C4 _C4 |  ^a'2 _b'2 ^f4 |  ^b' ^G4 ^c'3 | A ^f ^c3 ^c2 _b' | 